!!!COM: Paul Hindemith
!!!OTL: [T673_Hin-w97p3s1-4]
**kern	**dynam	**kern	**dynam	**kern	**dynam	**kern	**dynam
*grp:A	*grp:A	*grp:B	*grp:B	*grp:B	*grp:A	*grp:A	*
*part4	*part4	*part3	*part3	*part2	*part2	*part1	*part1
*staff4	*	*staff3	*	*staff2	*	*staff1	*
*I"Horn 4	*	*I"Horn 3	*	*I"Horn 2	*	*I"Horn 1	*
*I'Hn. 4	*	*I'Hn. 3	*	*I'Hn. 2	*	*I'Hn. 1	*
*clefG2	*	*clefG2	*	*clefG2	*	*clefG2	*
*ITrd4c7	*	*ITrd4c7	*	*ITrd4c7	*	*ITrd4c7	*
*k[b-]	*	*k[b-]	*	*k[b-]	*	*k[b-]	*
*	*	*	*	*	*	*	*
*M4/4	*	*M4/4	*	*M4/4	*	*M4/4	*
=1	=1	=1	=1	=1	=1	=1	=1
!	!	!	!	!	!	!LO:TX:i::t=Fugato	!
!	!	!	!	!	!	!LO:TX:t=Sehr Langsam ([quarter]= 45)	!
1r	.	1r	.	1r	.	8r	.
!	!	!	!	!	!	!	!LO:DY:t=%s  espr.
.	.	.	.	.	.	4.B-~	p
.	.	.	.	.	.	4.f~	.
.	.	.	.	.	.	(8e-X	.
=2	=2	=2	=2	=2	=2	=2	=2
1r	.	1r	.	1r	.	8fL	.
.	.	.	.	.	.	8f#XJ)	.
.	.	.	.	.	.	[4d^	.
.	.	.	.	.	.	4.d]	.
.	.	.	.	.	.	8d-X	.
=3	=3	=3	=3	=3	=3	=3	=3
1r	.	1r	.	2r	.	4A-X	.
.	.	.	.	.	.	4c-X	.
.	.	.	.	8r	.	(4.B-	.
!	!	!	!	!	!LO:DY:t=%s  espr.	!	!
.	.	.	.	4.E-X~	p	.	.
.	.	.	.	.	.	8c)	.
=4	=4	=4	=4	=4	=4	=4	=4
1r	.	1r	.	4.B-~	.	2c	.
.	.	.	.	(8A-X	.	.	.
.	.	.	.	8B-L	.	(8d-X	.
.	.	.	.	8BXJ)	.	4g-X	.
.	.	.	.	[4G^	.	.	.
.	.	.	.	.	.	8f)	.
=5	=5	=5	=5	=5	=5	=5	=5
1r	.	1r	.	4.G]	.	(4f	.
.	.	.	.	.	.	4B-)	.
.	.	.	.	8G-X	.	.	.
.	.	.	.	4D-X	.	4.e-X	.
.	.	.	.	4F-X	.	.	.
.	.	.	.	.	.	8d-X	.
=6	=6	=6	=6	=6	=6	=6	=6
2r	.	1r	.	2E-X	.	(4d-X	.
.	.	.	.	.	.	8c)	.
.	.	.	.	.	.	8r	.
8r	.	.	.	4.A-X	<	(4d-	<
!	!LO:DY:t=%s  espr.	!	!	!	!	!	!
4.BB-~	p	.	.	.	.	.	.
.	.	.	.	.	.	8e-X)	.
.	.	.	.	8G	.	8r	.
!!linebreak:original
=7	=7	=7	=7	=7	=7	=7	=7
4.F~	<	1r	.	4A-X	.	(4e-X	.
.	.	.	.	4B-	.	8d-X)	.
(8E-X	.	.	.	.	.	8r	.
8FL	.	.	.	4.c	.	(4e-	.
8F#XJ)	.	.	.	.	.	.	.
[4D^	.	.	.	.	.	8f)	.
.	.	.	.	8d-X	.	8r	.
=8	=8	=8	=8	=8	=8	=8	=8
4D]	.	2r	.	4c	.	8fL	.
.	.	.	.	.	.	8e-XJ	.
4C#X	.	.	.	[4e-X	.	[4f	.
4.BBX	mf	8r	.	4.e-]	.	8fL]	.
.	.	4.BX~	mf	.	.	8f#XJ	.
.	.	.	.	.	.	4g#X	.
8r	.	.	.	8dn	.	.	.
!!LO:REH:t=A
=9	=9	=9	=9	=9	=9	=9	=9
1r	.	4.f#X~	.	4D	mf	8r	.
.	.	.	.	.	.	4.d~	mf
.	.	.	.	4r	.	.	.
.	.	(8e	.	.	.	.	.
.	.	8f#L	.	2r	.	4.a~	.
.	.	8gJ)	.	.	.	.	.
.	.	[4d^	.	.	.	.	.
.	.	.	.	.	.	(8g	.
=10	=10	=10	=10	=10	=10	=10	=10
2r	.	4d]	.	1r	.	8aL	.
.	.	.	.	.	.	8b-J)	.
.	.	4d-X	.	.	.	2f^	.
8r	.	2c	.	.	.	.	.
4.F~	mf	.	.	.	.	.	.
.	.	.	.	.	.	4e-X	.
=11	=11	=11	=11	=11	=11	=11	=11
4.c~	.	1r	.	8r	.	(4f	<
.	.	.	.	4.A-X~	mf	.	.
.	.	.	.	.	<	8e-X)	.
(8B-	<	.	.	.	.	8r	.
8cL	.	.	.	4.e-X~	.	(4f	.
8d-XJ)	.	.	.	.	.	.	.
(4A-X^	.	.	.	.	.	8g-X)	.
.	.	.	.	(8d-X	.	8r	.
=12	=12	=12	=12	=12	=12	=12	=12
4.G-X	.	2r	.	8e-XL	.	(4a-X	.
.	.	.	.	8eJ)	.	.	.
.	.	.	.	2.BX^	f	4a)	.
8F)	.	.	.	.	.	.	.
8r	.	4BX	f	.	.	8r	.
4.En~	f	.	.	.	.	4.e~	f
.	.	8c#XL	.	.	.	.	.
.	.	8dJ	.	.	.	.	.
!!linebreak:original
=13	=13	=13	=13	=13	=13	=13	=13
4.BX~	.	2e	.	(4g	.	4.bX~	.
.	.	.	.	8a)	.	.	.
(8A	.	.	.	8r	.	(8a	.
8BL	.	4d	.	(4g	.	8bL	.
8cJ)	.	.	.	.	.	8ccJ)	.
[4A-X^	.	4cn	.	8f)	.	[4a-X^	.
.	.	.	.	8r	.	.	.
=14	=14	=14	=14	=14	=14	=14	=14
(8A-L]	.	2B-	.	(4e-X	.	4.a-]	.
8GJ)	.	.	.	.	.	.	.
4F	.	.	.	8d-X)	.	.	.
.	.	.	.	8r	.	8g-X	.
4D-X	.	4A-X	.	8e-L	.	4.a-X	.
.	.	.	.	8f-X	.	.	.
4C-X	.	4G-X	.	8e-	.	.	.
.	.	.	.	8d-XJ	.	8e-X	.
=15	=15	=15	=15	=15	=15	=15	=15
[1BB-	.	8r	.	8d-XL	.	4f	.
.	.	4.F~	p	8cJ	.	.	.
.	.	.	.	4B-	.	4r	.
.	.	4.c~	.	4A-X	.	8r	.
.	.	.	.	.	.	4.d-X~	.
.	.	.	.	4G-X	.	.	.
.	.	(8B-	.	.	.	.	.
!!LO:REH:t=B
=16	=16	=16	=16	=16	=16	=16	=16
1BB-]	.	8cL	.	2F	.	4.a-X~	.
.	.	8c#XJ)	.	.	.	.	.
.	.	[4A^	.	.	.	.	.
.	>	.	>	.	>	(8g-X	>
.	.	4.A]	.	[2F#X	.	8a-L	.
.	.	.	.	.	.	8aJ)	.
.	.	.	.	.	.	[4e^	.
.	.	8G#X	.	.	.	.	.
=17	=17	=17	=17	=17	=17	=17	=17
[1BB-	.	4A	.	4F#]	.	8eL]	.
.	.	.	.	.	.	8f#XJ	.
.	.	4BX	.	8EL	.	[4g	.
.	.	.	.	8F#XJ	.	.	.
.	.	4c	.	4G	.	8gL]	.
.	.	.	.	.	.	8f	.
.	.	[4d	<	8AL	.	8g	.
.	.	.	[[	8B-XJ	.	8a-XJ	.
!!pagebreak:original
=18	=18	=18	=18	=18	=18	=18	=18
4BB-]	.	4d]	.	(8c-X	.	(4.e-X	.
.	.	.	.	[4.e-X)	.	.	.
4F	.	8cL	.	.	.	.	.
.	.	[8c-XJ	.	.	.	8f	.
4.D-X	.	8c-L]	>	4e-]	.	4g-X)	.
.	.	8B-	.	.	.	.	.
.	.	8A-X	.	4r	.	8e-L	.
8E-X	.	8B-J	]]	.	.	8d-XJ	.
=19	=19	=19	=19	=19	=19	=19	=19
2C	.	8r	.	[1G	.	4.c	.
.	.	4.cn~	mf	.	.	.	.
.	.	.	.	.	.	8B-	.
4Dn	.	4.g~	.	.	.	4.c	.
4G	.	.	.	.	.	.	.
.	.	8f	.	.	.	8d-X	.
=20	=20	=20	=20	=20	=20	=20	=20
*M3/4	*	*M3/4	*	*M3/4	*	*M3/4	*
4F	.	2g	.	2G]	.	2c	.
4E-X	.	.	.	.	.	.	.
!	!LO:DY:t=%s  espr.	!	!	!	!LO:DY:t=%s  espr.	!	!LO:DY:t=%s  espr.
4D-X	p	4a-X	.	4F	p	8cL	p
.	.	.	.	.	.	8B-J	.
=21	=21	=21	=21	=21	=21	=21	=21
*M5/4	*	*M5/4	*	*M5/4	*	*M5/4	*
8C~L	.	4e-X~	.	2G	.	(4.c	.
8BB-~J	.	.	.	.	.	.	.
(4AA	.	4f-X~	.	.	.	.	.
.	.	.	.	.	.	8d-X	.
4AA-X)	.	(2c-X	>	(2A-X	.	4D-X)	.
[2A-X	.	.	.	.	.	(4.E-X	.
.	.	4d-X)	]]	4B-)	.	.	.
.	.	.	.	.	.	8d-)	.
=22	=22	=22	=22	=22	=22	=22	=22
*M3/4	*	*M3/4	*	*M3/4	*	*M3/4	*
4A-]	.	2.e-X	p	2B-	.	(4d-X	.
2G	.	.	.	.	.	2c)	.
.	>	.	>	8A-X~L	>	.	>
.	.	.	.	8B-~J	.	.	.
=23	=23	=23	=23	=23	=23	=23	=23
2.F	]]	2.f	]]	2.c	]]	2.F	]]
==	==	==	==	==	==	==	==
*-	*-	*-	*-	*-	*-	*-	*-
!!!system-decoration: [(s1,s2,s3,s4)]
!!!RDF**dynam: > = dim.
!!!EED: Daniel Wright
!!!EEV: 2021/12/17
